X:1
T:Home on the Range
T:Home on the Range
T:Harmonization with secondary dominants
T:Brewster Higley Dan Kelly 
%%score { 1 | ( 2 3 ) }
L:1/8
M:3/4
K:F
V:1 treble nm="Piano" snm="Pno."
V:2 bass 
V:3 bass 
V:1
 C2 |"F" C2 F2 G2 |"F7""^secondary dominant:\nV in the key of B♭\n" A4 FE |"Bb" D2 B2 B2 | B4 BB | %5
"F" c4 FF |"Dm7""^anything V (G7) can do,\nii-V can do better\n" F2 E2 F2 | %7
"G7""^secondary dominant:\nV in the key of C\n" G6- |"C7" G4 C2 |"F" C2 F2 G2 | %10
"F7""^secondary dominant:\nV in the key of B♭\n" A4 FE |"Bb" D2 B2 B2 | B4 BB | %13
"G7""^secondary dominant:\nV in the key of C\n" A3 G F2 |"C7" E2 F2 G2 |"F" F6- | %16
"C7""^not a secondary domaint,\nbut the actual V in the key\n" F4 z2 ||"F" c6 |"C7" B2 A3 G | %19
"F" A6- | A4 CC |"Dm""^anything V (G7) can do,\nii-V can do better\n" F2 F2 F2 | %22
"G7""^secondary dominant:\nV in the key of C\n" F2 E2 F2 | %23
"Gm7""^anything V (C7) can do,\nii-V can do better\n" G6- |"C7" G4 C2 |"F" C2 F2 G2 | %26
"F7""^secondary dominant:\nV in the key of B♭\n" A4 FE |"Bb" D2 B2 B2 | %28
"D7""^secondary dominant:\nV in the key of G\n" B4 BB | %29
"G7""^secondary dominant:\nV in the key of C\n" A3 G F2 |"C7" E2 F2 G2 |"F" F6- | F4 z2 |] %33
V:2
 z2 | z2 [A,C]2 [A,C]2 | z2 [C_E]2 [A,C]2 | z2 [F,D]2 [F,D]2 | z2 [F,D]2 [F,D]2 | %5
 z2 [A,C]2 [A,C]2 | z2 [A,C]2 [A,C]2 | z2 [=B,F]2 [B,F]2 | z2 [_B,E]2 B,2 | z2 [A,C]2 [A,C]2 | %10
 z2 [C_E]2 [A,C]2 | z2 [F,D]2 [F,D]2 | z2 [F,D]2 [F,D]2 | z2 [G,=B,]2 [G,B,]2 | %14
 z2 [G,_B,]2 [B,E]2 | z2 [A,C]2 [A,C]2 | z2 [G,B,]2 [G,B,]2 || z2 [A,C]2 [A,C]2 | %18
 z2 [B,E]2 [B,E]2 | z2 [A,C]2 [A,C]2 | z2 [A,C]2 A,2 | z2 [A,C]2 [A,C]2 | z2 [=B,D]2 [B,D]2 | %23
 z2 [_B,F]2 [B,F]2 | z2 [B,E]2 B,2 | z2 [A,C]2 [A,C]2 | z2 [C_E]2 [A,C]2 | z2 [F,D]2 [F,D]2 | %28
 z2 [^F,C]2 [F,C]2 | z2 [G,=B,]2 [G,B,]2 | z2 [G,_B,]2 [B,E]2 | z2 [A,C]2 [A,C]2 | F,,4 z2 |] %33
V:3
 x2 |"" F,,6 |"" F,,6 |"" B,,6 | B,,6 |"" F,,6 |"" D,6 |"" G,,6 |"" C,6 |"" F,,6 |"" F,,6 | %11
"" B,,6 | B,,6 |"" G,,6 |"" C,6 |"" F,,6 |"" C,6 ||"" F,,6 |"" C,6 |"" F,,6 | F,,6 |"" D,6 | %22
"" G,6 |"" G,,6 |"" C,6 |"" F,,6 |"" F,,6 |"" B,,6 |"" D,6 |"" G,,6 |"" C,6 |"" F,,6 | x6 |] %33

